X:1
T:Title
%%score ( 1 2 ) { 3 | 4 }
L:1/8
Q:1/4=110
M:4/4
K:F
V:1 treble nm="Grand Piano, Soprano"
V:2 treble 
V:3 bass nm="Choir Pad, Varen, Robert Lowry, 1873"
V:4 bass 
V:1
 [FA]3 [CG] [CF]2 [CG]2 | [FA]2 [Fd]2 [Fc]4 | [FA]3 [FA] [FB]2 [FA]2 | [CG]2 [FG]2 [EG]4 | %4
w: By~Robert~Lowry,~1873 * * *||||
 [FA]3 [CG] [CF]2 [CG]2 | [FA]2 [Fd]2 [Fc]2 [FA]2 | [EG]3 [EG] [FA]2 [F=B]2 | [Ec]8 | %8
w: ||||
 [GB]3 [FA] [GB]2 [Ac]2 | [Bd]2 [Ac]2 [FA]4 | [FA]3 [FG] [FB]2 [FA]2 | [CG]2 [FG]2 [EG]4 | %12
w: ||||
 [FA]3 [GB] [Ac]2 [CF]2 | [FB]2 [FB]2 [FA]2 [DG]2 | z4 A2 z2 | F8 |] %16
w: ||||
V:2
 x8 | x8 | x8 | x8 | x8 | x8 | x8 | x8 | x8 | x8 | x8 | x8 | x8 | x8 | [CF]3 [CF] CF [EG]2 | x8 |] %16
V:3
 C3 B, A,2 B,2 | C2 B,2 A,4 | C3 C D2 C2 | C2 =B,2 C4 | C3[K:bass] B, A,2 B,2 | %5
 C2 B,2 A,2[K:treble] C2 | C3 C C2 G,2 | G,8 | C3 C C2 C2 | C2 C2 C4 | C3 B, D2 C2 | C2 =B,2 C4 | %12
 C3 C C2 A,2 | D2 D2 C2[K:bass] B,2 | A,3 A, C2 B,2 | A,8 |] %16
V:4
 F,3 F, F,2 F,2 | F,2 F,2 F,4 | F,3 F, F,2 F,2 | E,2 D,2 C,4 | F,3 F, F,2 F,2 | F,2 F,2 F,2 F,2 | %6
 G,3 G, G,2 z2 | C,8 | C,3 C, C,2 C,2 | F,2 F,2 F,4 | F,3 F, F,2 F,2 | E,2 D,2 C,4 | %12
 F,3 F, F,2 F,2 | B,,2 D,2 F,2 B,,2 | C,3 C, C,2 C,2 | F,8 |] %16

